img/corev-logo-light.svg

<svg width="225" height="223" viewBox="0 0 225 223" fill="none" xmlns="http://www.w3.org/2000/svg">
<path fill-rule="evenodd" clip-rule="evenodd" d="M1.50745 124.416C3.51738 122.429 6.77619 122.429 8.78612 124.416L47.3846 162.582C49.3945 164.569 49.3945 167.791 47.3846 169.779L8.78612 207.943C6.77619 209.931 3.51738 209.931 1.50745 207.943C-0.502482 205.956 -0.502482 202.734 1.50745 200.748L36.4673 166.179L1.50745 131.612C-0.502482 129.625 -0.502482 126.403 1.50745 124.416ZM51.466 217.067C51.466 214.257 53.7701 211.979 56.6116 211.979H108.077C110.92 211.979 113.224 214.257 113.224 217.067C113.224 219.878 110.92 222.156 108.077 222.156H56.6116C53.7701 222.156 51.466 219.878 51.466 217.067Z" fill="#AEFFDE"/>
<path fill-rule="evenodd" clip-rule="evenodd" d="M143.319 37.6303C153.388 49.7966 161.198 66.5202 169.883 85.2185L175.06 82.8142L169.883 85.2185L170.052 85.5822C180.19 107.409 191.406 131.557 208.632 150.988C209.623 152.106 209.953 153.86 209.387 155.533C208.841 157.148 207.808 157.829 206.762 157.9L207.158 163.735L206.762 157.9C189.213 159.09 163.607 160.472 139.435 160.472C127.083 160.472 113.254 160.111 99.8407 159.597H99.8406C67.3767 158.355 42.7656 131.575 48.1479 100.74L42.6026 99.7721L48.1479 100.74C49.8489 90.9949 52.0921 81.0218 55.0427 71.5196C55.779 69.1484 54.9379 66.5707 52.9447 65.0901C47.5084 61.0519 42.1852 56.6636 38.5363 52.6986C36.6976 50.7004 35.5118 49.0517 34.8991 47.8136C34.7428 47.4976 34.6465 47.2564 34.5874 47.0813C34.8282 46.8876 35.2725 46.5851 36.0529 46.2155C37.7736 45.4005 40.2961 44.6627 43.5161 44.0626C49.9123 42.8705 57.8627 42.4317 64.8046 42.3301C66.7039 42.3023 68.4715 41.3538 69.5447 39.7864C78.5354 26.6563 90.0641 18.6426 105.318 18.6425C121.891 18.6425 133.521 25.7913 143.319 37.6303ZM34.4956 46.7221C34.4954 46.7135 34.4949 46.709 34.4948 46.709C34.4946 46.7089 34.4947 46.7132 34.4956 46.7221ZM152.331 30.1725C140.833 16.2797 126.12 6.94524 105.318 6.94526C86.1981 6.94531 71.984 16.7403 61.6588 30.6967C55.1509 30.8769 47.7549 31.3739 41.3731 32.5633C37.7061 33.2467 34.0691 34.212 31.0455 35.6442C28.1854 36.9989 24.7818 39.2892 23.3868 43.2253C22.0891 46.8868 23.1431 50.4306 24.4152 53.0014C25.7297 55.6579 27.7437 58.2448 29.929 60.6194C33.4809 64.4792 38.0907 68.4208 42.6922 71.9929C40.1391 80.8517 38.1606 89.93 36.6249 98.7288C29.8249 137.686 61.0625 169.819 99.3932 171.286C112.887 171.803 126.878 172.169 139.435 172.169C163.989 172.169 189.893 170.768 207.553 169.571C214.267 169.116 218.739 164.393 220.468 159.281C222.178 154.227 221.553 147.93 217.385 143.229C201.391 125.188 190.807 102.5 180.492 80.2911L180.273 79.8206C171.849 61.6823 163.461 43.6218 152.331 30.1725Z" fill="#333333"/>
<path fill-rule="evenodd" clip-rule="evenodd" d="M118.111 73.0471C114.881 73.0471 112.263 75.6656 112.263 78.8957C112.263 81.2461 112.291 83.5289 112.342 85.7413C113.055 116.276 137.769 138.643 167.737 139.397L167.737 139.397C178.564 139.669 192.378 139.414 202.322 137.993C205.52 137.537 207.742 134.574 207.285 131.377C206.828 128.179 203.866 125.957 200.668 126.414C191.689 127.696 178.639 127.97 168.031 127.703C143.727 127.092 124.59 109.206 124.036 85.468L124.036 85.4675C123.987 83.3453 123.96 81.1537 123.96 78.8957C123.96 75.6656 121.341 73.0471 118.111 73.0471Z" fill="#333333"/>
<path fill-rule="evenodd" clip-rule="evenodd" d="M92.5239 49.5916C89.2938 49.5916 86.6753 52.2101 86.6753 55.4402V59.7049C86.6753 62.935 89.2938 65.5535 92.5239 65.5535C95.754 65.5535 98.3726 62.935 98.3726 59.7049V55.4402C98.3726 52.2101 95.754 49.5916 92.5239 49.5916Z" fill="#333333"/>
<path fill-rule="evenodd" clip-rule="evenodd" d="M137.02 160.772C133.955 159.751 130.643 161.407 129.622 164.471L121.093 190.059C120.071 193.123 121.727 196.436 124.792 197.457C127.856 198.478 131.168 196.822 132.19 193.758L140.719 168.17C141.74 165.106 140.084 161.794 137.02 160.772Z" fill="#333333"/>
<path fill-rule="evenodd" clip-rule="evenodd" d="M85.1276 157.718C82.1362 156.5 78.7233 157.937 77.5048 160.928L65.7843 189.702C64.5658 192.693 66.003 196.106 68.9945 197.325C71.9859 198.543 75.3988 197.106 76.6173 194.114L88.3378 165.341C89.5563 162.349 88.1191 158.937 85.1276 157.718Z" fill="#333333"/>
</svg>

<svg xmlns="http://www.w3.org/2000/svg" width="225" height="223" fill="none"><path fill="#AEFFDE" fill-rule="evenodd" d="M1.507 124.416a5.19 5.19 0 0 1 7.28 0l38.598 38.166a5.05 5.05 0 0 1 0 7.197L8.786 207.943a5.187 5.187 0 0 1-7.279 0 5.046 5.046 0 0 1 0-7.195l34.96-34.569-34.96-34.567a5.05 5.05 0 0 1 0-7.196m49.959 92.651c0-2.81 2.304-5.088 5.146-5.088h51.465c2.843 0 5.147 2.278 5.147 5.088s-2.304 5.089-5.147 5.089H56.612c-2.842 0-5.146-2.278-5.146-5.089" clip-rule="evenodd"/><path fill="#333" fill-rule="evenodd" d="M143.319 37.63c10.069 12.167 17.879 28.89 26.564 47.589l5.177-2.405-5.177 2.405.169.363c10.138 21.827 21.354 45.975 38.58 65.406.991 1.118 1.321 2.872.755 4.545-.546 1.615-1.579 2.296-2.625 2.367l.396 5.835-.396-5.835c-17.549 1.19-43.155 2.572-67.327 2.572-12.352 0-26.181-.361-39.594-.875-32.464-1.242-57.075-28.022-51.693-58.857l-5.545-.968 5.545.968c1.7-9.745 3.944-19.718 6.895-29.22a5.85 5.85 0 0 0-2.098-6.43c-5.437-4.038-10.76-8.426-14.409-12.391-1.838-1.999-3.024-3.647-3.637-4.885a6 6 0 0 1-.312-.733c.241-.193.685-.496 1.466-.866 1.72-.815 4.243-1.552 7.463-2.152 6.396-1.193 14.347-1.631 21.289-1.733a5.85 5.85 0 0 0 4.74-2.544c8.99-13.13 20.52-21.143 35.773-21.144 16.573 0 28.203 7.15 38.001 18.988m9.012-7.458C140.833 16.28 126.12 6.945 105.318 6.945c-19.12 0-33.334 9.795-43.66 23.752-6.507.18-13.903.677-20.285 1.866-3.667.684-7.304 1.649-10.327 3.081-2.86 1.355-6.264 3.645-7.66 7.581-1.297 3.662-.243 7.206 1.03 9.776 1.314 2.657 3.328 5.244 5.513 7.618 3.552 3.86 8.162 7.802 12.763 11.374-2.553 8.859-4.531 17.937-6.067 26.736-6.8 38.957 24.438 71.09 62.768 72.557 13.494.517 27.485.883 40.042.883 24.554 0 50.458-1.401 68.118-2.598 6.714-.455 11.186-5.178 12.915-10.29 1.71-5.054 1.085-11.351-3.083-16.052-15.994-18.041-26.578-40.729-36.893-62.938l-.219-.47c-8.424-18.139-16.812-36.2-27.942-49.648" clip-rule="evenodd"/><path fill="#333" fill-rule="evenodd" d="M118.111 73.047a5.85 5.85 0 0 0-5.848 5.849q.001 3.526.079 6.845c.713 30.535 25.427 52.902 55.395 53.656 10.827.272 24.641.017 34.585-1.404a5.848 5.848 0 1 0-1.654-11.579c-8.979 1.282-22.029 1.556-32.637 1.289-24.304-.611-43.441-18.497-43.995-42.235a285 285 0 0 1-.076-6.572 5.85 5.85 0 0 0-5.849-5.849M92.524 49.592a5.85 5.85 0 0 0-5.849 5.848v4.265a5.849 5.849 0 1 0 11.698 0V55.44a5.85 5.85 0 0 0-5.85-5.848m44.497 111.18a5.85 5.85 0 0 0-7.398 3.699l-8.529 25.588a5.85 5.85 0 0 0 11.097 3.699l8.529-25.588a5.85 5.85 0 0 0-3.699-7.398m-51.892-3.054a5.85 5.85 0 0 0-7.623 3.21l-11.72 28.774a5.85 5.85 0 0 0 10.832 4.412l11.72-28.773a5.85 5.85 0 0 0-3.21-7.623" clip-rule="evenodd"/></svg>
